public/favicon.svg

<svg fill="none" viewBox="-6 -12.3 66 66" xmlns="http://www.w3.org/2000/svg" xmlns:xlink="http://www.w3.org/1999/xlink"><clipPath id="a"><path d="m0 .59091h53.8589v40h-53.8589z"/></clipPath><g clip-path="url(#a)"><g clip-rule="evenodd" fill-rule="evenodd"><path d="m23.5902 28.7961c-.1898-.3142-.3796-.6059-.5674-.8752v.2992c0 2.504-.4995 4.6799-1.4977 6.5277-.9992 1.8468-2.3845 3.2703-4.1559 4.2696-1.7724.9992-3.8319 1.4983-6.1791 1.4983-2.08801 0-3.98139-.4136-5.67941-1.2429-1.69897-.8283-3.04421-2.0937-4.03766-3.795-.99345-1.7014-1.4835434-3.8421-1.47305595-6.423h7.29637595c.02288 1.0249.21163 1.9002.56725 2.628s.84667 1.2846 1.47306 1.6704 1.36814.5782 2.22614.5782c.9019 0 1.6666-.2181 2.293-.6541.6264-.4371 1.1031-1.0794 1.431-1.9269.3271-.8475.4911-1.8905.4911-3.1303v-4.9685c-.3223-.2533-.676-.4777-1.0631-.669-5.33811-2.6333-10.72677 1.8724-10.13947 1.1297-.03147.0021-.01043-.0396.0668-.1368.95627-1.1948 3.38833-5.0347 9.16497-6.2039 10.1862-2.0626 15.4272 6.5747 17.2348 10.4114.4815 1.0249 1.35 2.9229 3.56 4.619.8648.6637 2.6115 1.245 3.8757 1.245 1.2413 0 2.3215-.203 3.2415-.607.573-.2522 1.0659-.5664 1.4787-.9405-2.1442 1.9804-5.0854 3.4435-8.4262 3.4435-4.7575 0-8.5978-2.5083-10.7668-6.0244-.1382-.2533-.2764-.4938-.4146-.7225z" fill="#003f87"/><path d="m42.4447 40.1854c-.3871.0759-.7857.1389-1.1947.1902-.8504.1058-1.7466.1593-2.6886.1593-2.7982 0-6.4584-.5269-9.6104-3.5642-1.8362-1.7687-3.009-3.4113-3.9414-5.3425-.0248-.0513-.0438-.1047-.0657-.156-.1802-.4297-.5463-1.1959-.5463-1.1959-.1307-.264-.2613-.5162-.3928-.7577 2.169 3.516 6.0093 6.0243 10.7668 6.0243 3.3407 0 6.282-1.4631 8.4262-3.4434.2498-.2277.471-.4767.6627-.7492.5081-.7203.7617-1.5496.7617-2.4858 0-.8721-.2288-1.6063-.6855-2.2005-.3194-.4157-.7408-.7876-1.2643-1.1168-.2259-.1421-.4699-.2757-.7331-.4018-.8752-.4168-1.9439-.7962-3.2082-1.1382l-3.7755-1.0623c-2.9222-.7973-5.2304-2.0434-6.9236-3.7384-1.6923-1.695-2.5333-3.9788-2.5218-6.8505-.0115-2.3533.5501-4.4084 1.6837-6.16751 1.1345-1.75804 2.6953-3.13027 4.6812-4.11776 1.986-.98643 4.2437-1.480182 6.7712-1.480182 2.5732 0 4.8223.493752 6.7462 1.480182 1.924.98749 3.4218 2.35972 4.4944 4.11776 1.0716 1.75911 1.6246 3.795 1.6589 6.11091 0 0-5.4106-6.7468-9.8677-6.7468-2.9337 0-5.4459 1.26108-7.3289 3.24141-.2555.22657-.4757.47987-.6616.75773l-.0096.01494c-.4347.65722-.6521 1.40432-.6521 2.23902-.0219.6957.1106 1.3027.3976 1.8221.2879.5183.6864.964 1.1936 1.337.5082.374 1.0946.6957 1.761.9683.6655.2714 1.3767.5023 2.1327.6925l3.1149.8346c1.5121.3794 2.9002.886 4.1644 1.5187s2.3588 1.4096 3.2845 2.3341c.9248.9233 1.6446 2.0112 2.1575 3.2638.5139 1.2515.7762 2.6878.7876 4.3069-.0114 2.3779-.5502 4.4374-1.617 6.1773-1.0659 1.7388-2.6009 3.0864-4.604 4.0418-1.0135.4831-2.1308.8432-3.354 1.0826z" fill="#16bce1"/><path d="m15.7778 14.5245v-13.40175h7.245v14.92145c-2.0146-1.0879-4.4172-1.7292-7.245-1.5197z" fill="#003f87"/><path d="m51.5458 12.2994h-7.0256c-.1354-1.5315-.7161-2.71985-1.7429-3.56734-1.0277-.84856-2.4207-1.27178-4.1816-1.27178-1.1965 0-2.2062.18701-3.0299.56-.4681.2116-.8734.47023-1.2156.77375 1.882-1.98034 4.3941-3.24141 7.3278-3.24141 4.4572 0 8.0497 2.85773 9.8678 6.74678z" fill="#003f87"/></g><path d="m52.761 15.4221c-.5246-.8192-1.0568-1.4947-1.0622-1.5015l-.1532-.194-.1532.194c-.0054.0068-.5376.6823-1.0622 1.5015-.7178 1.1208-1.0817 1.9694-1.0817 2.5223 0 1.3474 1.0305 2.4436 2.2971 2.4436 1.2667 0 2.2971-1.0962 2.2971-2.4436 0-.5529-.3639-1.4015-1.0817-2.5223z" fill="#16bce1"/></g></svg>

<svg xmlns="http://www.w3.org/2000/svg" viewBox="-6 -12.3 66 66" fill="none">
<g clip-path="url(#josta-mark)">
<path fill-rule="evenodd" clip-rule="evenodd" d="M23.5902 28.7961C23.4004 28.4819 23.2106 28.1902 23.0228 27.9209V28.2201C23.0228 30.7241 22.5233 32.9 21.5251 34.7478C20.5259 36.5946 19.1406 38.0181 17.3692 39.0174C15.5968 40.0166 13.5373 40.5157 11.1901 40.5157C9.10209 40.5157 7.20871 40.1021 5.51069 39.2728C3.81172 38.4445 2.46648 37.1791 1.47303 35.4778C0.47958 33.7764 -0.0105134 31.6357 -2.59486e-05 29.0548H7.29635C7.31923 30.0797 7.50798 30.955 7.8636 31.6828C8.21922 32.4106 8.71027 32.9674 9.33666 33.3532C9.96305 33.739 10.7048 33.9314 11.5628 33.9314C12.4647 33.9314 13.2294 33.7133 13.8558 33.2773C14.4822 32.8402 14.9589 32.1979 15.2868 31.3504C15.6139 30.5029 15.7779 29.4599 15.7779 28.2201V23.2516C15.4556 22.9983 15.1019 22.7739 14.7148 22.5826C9.37669 19.9493 3.98803 24.455 4.57533 23.7123C4.54386 23.7144 4.5649 23.6727 4.64213 23.5755C5.5984 22.3807 8.03046 18.5408 13.8071 17.3716C23.9933 15.309 29.2343 23.9463 31.0419 27.783C31.5234 28.8079 32.3919 30.7059 34.6019 32.402C35.4667 33.0657 37.2134 33.647 38.4776 33.647C39.7189 33.647 40.7991 33.444 41.7191 33.04C42.2921 32.7878 42.785 32.4736 43.1978 32.0995C41.0536 34.0799 38.1124 35.543 34.7716 35.543C30.0141 35.543 26.1738 33.0347 24.0048 29.5186C23.8666 29.2653 23.7284 29.0248 23.5902 28.7961Z" fill="#003F87"/>
<path fill-rule="evenodd" clip-rule="evenodd" d="M42.4447 40.1854C42.0576 40.2613 41.659 40.3243 41.25 40.3756C40.3996 40.4814 39.5034 40.5349 38.5614 40.5349C35.7632 40.5349 32.103 40.008 28.951 36.9707C27.1148 35.202 25.942 33.5594 25.0096 31.6282C24.9848 31.5769 24.9658 31.5235 24.9439 31.4722C24.7637 31.0425 24.3976 30.2763 24.3976 30.2763C24.2669 30.0123 24.1363 29.7601 24.0048 29.5186C26.1738 33.0346 30.0141 35.5429 34.7716 35.5429C38.1123 35.5429 41.0536 34.0798 43.1978 32.0995C43.4476 31.8718 43.6688 31.6228 43.8605 31.3503C44.3686 30.63 44.6222 29.8007 44.6222 28.8645C44.6222 27.9924 44.3934 27.2582 43.9367 26.664C43.6173 26.2483 43.1959 25.8764 42.6724 25.5472C42.4465 25.4051 42.2025 25.2715 41.9393 25.1454C41.0641 24.7286 39.9954 24.3492 38.7311 24.0072L34.9556 22.9449C32.0334 22.1476 29.7252 20.9015 28.032 19.2065C26.3397 17.5115 25.4987 15.2277 25.5102 12.356C25.4987 10.0027 26.0603 7.9476 27.1939 6.18849C28.3284 4.43045 29.8892 3.05822 31.8751 2.07073C33.8611 1.0843 36.1188 0.590548 38.6463 0.590548C41.2195 0.590548 43.4686 1.0843 45.3925 2.07073C47.3165 3.05822 48.8143 4.43045 49.8869 6.18849C50.9585 7.9476 51.5115 9.98349 51.5458 12.2994C51.5458 12.2994 46.1352 5.5526 41.6781 5.5526C38.7444 5.5526 36.2322 6.81368 34.3492 8.79401C34.0937 9.02058 33.8735 9.27388 33.6876 9.55174L33.678 9.56668C33.2433 10.2239 33.0259 10.971 33.0259 11.8057C33.004 12.5014 33.1365 13.1084 33.4235 13.6278C33.7114 14.1461 34.1099 14.5918 34.6171 14.9648C35.1253 15.3388 35.7117 15.6605 36.3781 15.9331C37.0436 16.2045 37.7548 16.4354 38.5108 16.6256L41.6257 17.4602C43.1378 17.8396 44.5259 18.3462 45.7901 18.9789C47.0543 19.6116 48.1489 20.3885 49.0746 21.313C49.9994 22.2363 50.7192 23.3242 51.2321 24.5768C51.746 25.8283 52.0083 27.2646 52.0197 28.8837C52.0083 31.2616 51.4695 33.3211 50.4027 35.061C49.3368 36.7998 47.8018 38.1474 45.7987 39.1028C44.7852 39.5859 43.6679 39.946 42.4447 40.1854Z" fill="#16BCE1"/>
<path fill-rule="evenodd" clip-rule="evenodd" d="M15.7778 14.5245V1.12275H23.0228V16.0442C21.0082 14.9563 18.6056 14.315 15.7778 14.5245Z" fill="#003F87"/>
<path fill-rule="evenodd" clip-rule="evenodd" d="M51.5458 12.2994H44.5202C44.3848 10.7679 43.8041 9.57955 42.7773 8.73206C41.7496 7.8835 40.3566 7.46028 38.5957 7.46028C37.3992 7.46028 36.3895 7.64729 35.5658 8.02028C35.0977 8.23188 34.6924 8.49051 34.3502 8.79403C36.2322 6.81369 38.7443 5.55262 41.678 5.55262C46.1352 5.55262 49.7277 8.41035 51.5458 12.2994Z" fill="#003F87"/>
<path d="M52.761 15.4221C52.2364 14.6029 51.7042 13.9274 51.6988 13.9206L51.5456 13.7266L51.3924 13.9206C51.387 13.9274 50.8548 14.6029 50.3302 15.4221C49.6124 16.5429 49.2485 17.3915 49.2485 17.9444C49.2485 19.2918 50.279 20.388 51.5456 20.388C52.8123 20.388 53.8427 19.2918 53.8427 17.9444C53.8427 17.3915 53.4788 16.5429 52.761 15.4221Z" fill="#16BCE1"/>
</g>
<defs>
<clipPath id="josta-mark"><rect width="53.8589" height="40" fill="white" transform="translate(0 0.59091)"/></clipPath>
</defs>
</svg>
